!!!!SEGMENT: pl-wumfc--n57163-cim_damse-jozef--walc-nowy.krn
!!!cenid: 18xx:4123
!!!COM: Damse, Józef
!!!COM-rismID: pe30008765
!!!CDT: 1789-1852
!!!CNT:
!!!OTL: Walc Nowy
!!!PDT:
!!!AGN:
!!!SMS-siglum: PL-Wumfc
!!!SMS-shelfmark: N57163 cim.
!!!SMS-shelfwork: W
!!!SMS-variant:
!!!SMS-altvar:
!!!NIFC-rismSourceID: 1001202637
!!!NIFC-rismChildID: 1001202637
!!!NIFC-islandoraID: pl-wumfc:24626
!!!URL-pdf-islandora: https://repozytorium.nifc.pl/islandora/object/pl-wumfc%3A24626/datastream/PDF/view
!!!URL-scan: https://polish.musicsources.pl/pl/lokalizacje/galeria/druki-muzyczne/12610/1 @EN{Scan on Polish Music Sources Website} @PL{Skany w portalu Dziedzictwo Muzyki Polskiej w otwartym dostępie}
!!!ONB-nifc:
!!!AIN: 1 piano
!!!key: G
**kern	**kern	**dynam
*part1	*part1	*part1
*staff2	*staff1	*
*I"Walec.	*I"Walec.	*
*>[A,B,B,C,C1,C,C2,D,D,E,E,F,F,A,B,C,D]	*>[A,B,B,C,C1,C,C2,D,D,E,E,F,F,A,B,C,D]	*
*>A	*>A	*
*Ipiano	*Ipiano	*
*ICklav	*ICklav	*
*clefF4	*clefG2	*
*k[f#]	*k[f#]	*
*G:	*G:	*
*M3/8	*M3/8	*
=1	=1	=1
!!LO:TX:t=P:problem:niepewne określenie, do którego momentu jest powtórka w części da capo
8GGL 8GGG/	8gL 8G/	f
8AA 8AAA/	8a 8A/	.
8BBJ 8BBB/	8bJ 8B/	.
=2	=2	=2
4C 4CC/	4cc 4c/	.
8BB 8BBB/	8b 8B/	.
=3	=3	=3
8AAL 8AAA/	8aL 8A/	.
8BB 8BBB/	8b 8B/	.
8CJ 8CC/	8ccJ 8c/	.
=4	=4	=4
4D 4DD/	4dd 4d/	.
8C 8CC/	8cc 8c/	.
=5	=5	=5
8BBL 8BBB/	8bL 8B/	.
8C 8CC/	8cc 8c/	.
8DJ 8DD/	8ddJ 8d/	.
=6	=6	=6
4E 4EE/	4ee 4e/	.
8D 8DD/	8dd 8d/	.
=7	=7	=7
8GL 8E 8AA\	16cc#X\LL	.
.	16dd\	.
16GL 16E 16AA\	16ee\	.
16GJ 16E 16AA\	16ff#\	.
8GJ 8E 8AA\	16gg\	.
.	16cc#\JJ	.
=8	=8	=8
4F# 4D\	4dd\	.
=!|:	=!|:	=!|:
*>B	*>B	*
!	!LO:TX:a:t=dolce.	!
8r	8dd\	.
=9	=9	=9
8G\L	4bb\	.
8d 8B\	.	.
8dJ 8B\	16aa\LL	.
.	16bb\JJ	.
=10	=10	=10
8F#\L	4ddd\	.
8d 8c 8A\	.	.
8dJ 8c 8A\	16ccc\LL	.
.	16aa\JJ	.
!!LO:LB:g=original
=11	=11	=11
8G\L	4gg\	.
8d 8B\	.	.
8dJ 8B\	16aa\LL	.
.	16bb\JJ	.
=12	=12	=12
8G\L	4dd\	.
8d 8B\	.	.
8dJ 8B\	8gg\	.
=13	=13	=13
!	!LO:N:vis=4.	!
8F#\L	4aa\	.
8d 8c 8A\	.	.
8dJ 8c 8A\	16gg\LL	.
.	16aa\JJ	.
=14	=14	=14
8G\L	4bb\	.
8d 8B\	.	.
8dJ 8B\	16aa\LL	.
.	16bb\JJ	.
=15	=15	=15
8G#X\L	4.ddd 4.dd\	.
8e 8B\	.	.
8eJ 8B\	.	.
=16	=16	=16
8A\L	4ccc#X 4cc#X\	.
8e 8c#X 8A\	.	.
8dJ 8A 8F#\	8cccn 8ccn\	.
=17	=17	=17
8G\L	4bb\	.
8d 8B\	.	.
8dJ 8B\	16aa\LL	.
.	16bb\JJ	.
=18	=18	=18
8F#\L	4ddd\	.
8d 8c 8A\	.	.
8dJ 8c 8A\	16ccc\LL	.
.	16aa\JJ	.
=19	=19	=19
8G\L	4gg\	.
8d 8B\	.	.
8dJ 8B\	16aa\LL	.
.	16bb\JJ	.
=20	=20	=20
8G\L	4dd\	.
8d 8B\	.	.
8dJ 8B\	8bb\	.
=21	=21	=21
8A\L	8aa\	.
8f# 8d\	4ddd 4dd\	.
8f#J 8d\	.	.
=22	=22	=22
8A\L	16ccc#X\LL	.
.	16bb\	.
8g 8e\	16aa\	.
.	16gg\	.
8gJ 8e\	16ff#\	.
.	16ee\JJ	.
!!LO:LB:g=original
=23	=23	=23
8f#L 8d\	4dd\	.
8f# 8d 8A\	.	.
8gJ 8c#X 8A\	16ff#\LL	.
.	16ee\JJ	.
=24	=24	=24
4f# 4d\	4dd\	.
=:|!|:	=:|!|:	=:|!|:
*>C	*>C	*
8r	8dd\	.
=25	=25	=25
*tremolo	*	*
8B-XL 8G 8D\	4gg\	.
8B- 8G 8D\	.	.
8B-J 8G 8D\	16gg\LL	.
.	16aa\JJ	.
=26	=26	=26
8B-XL 8G 8D\	4bb-X\	.
8B- 8G 8D\	.	.
8B-J 8G 8D\	16bb-\LL	.
.	16ccc\JJ	.
=27	=27	=27
8AL 8F#X 8D\	4ddd\	.
8A 8F# 8D\	.	.
8AJ 8F# 8D\	16ccc\LL	.
.	16bb-X\JJ	.
=28	=28	=28
8AL 8F# 8D\	4aa\	.
8A 8F# 8D\	.	.
8AJ 8F# 8D\	8dd\	.
=29	=29	=29
8B-XL 8G 8D\	4gg\	.
8B- 8G 8D\	.	.
8B-J 8G 8D\	16gg\LL	.
.	16aa\JJ	.
=30	=30	=30
!LO:SIC:v:n=1:s=8B-L	!	!
8BL 8G 8D\	4bb-X\	.
!LO:SIC:v:n=1:s=8B-	!	!
8B 8G 8D\	.	.
!LO:SIC:v:n=1:s=8B-J	!	!
8BJ 8G 8D\	16bb-\LL	.
.	16ccc\JJ	.
=31	=31	=31
8AL 8F#X 8D\	4ddd\	.
8A 8F# 8D\	.	.
8AJ 8F# 8D\	16ccc\LL	.
.	16bb-X\JJ	.
=32	=32	=32
8AL 8F# 8D\	4aa\	.
8A 8F# 8D\	.	.
8AJ 8F# 8D\	16gg\LL	.
.	16aa\JJ	.
*Xtremolo	*	*
=33	=33	=33
!LO:TX:a:t=P:problem:mixed beam	!	!
8GG/L	4bb-X\	.
8B-X 8G\	.	.
8B-J 8G\	16gg\LL	.
.	16aa\JJ	.
!!LO:LB:g=original
!!LO:TX:t=P:problem:defekt źródła (2 takty?)
=34	=34	=34
!LO:TX:t=P:problem:defekt źródła	!	!
4ryy	8.ddd\L	.
.	16ccc\L	.
8ryy	16aa-X\	.
.	16ffn\JJ	.
!LO:CL:ed	!	!
*clefG2	*	*
=35	=35	=35
*tremolo	*	*
8gL 8e-X 8B-X/	8.ccc\L	>
8g 8e- 8B-/	.	.
.	16bb-X\L	]
8gJ 8e- 8B-/	16gg\	.
.	16ee-X\JJ	.
=36	=36	=36
8a-XL 8f# 8B-X/	8.bb-X\L	.
8a- 8f# 8B-/	.	.
.	16aa-X\L	.
8a-J 8f# 8B-/	16ff#\	.
.	16dd\JJ	.
*Xtremolo	*	*
=37	=37	=37
!LO:TX:a:t=P:problem:mixed beam	!	!
8g/L 8e-X/	4ee-X\	.
*clefF4	*	*
8G 8E-X\	.	.
8GJ 8E-\	16gg\LL	.
.	16aan\JJ	.
=38	=38	=38
8c#XL 8G 8E\	4bb-X\	.
8c# 8G 8E\	.	.
8c#J 8G 8E\	16aa\LL	.
.	16gg\JJ	.
=39	=39	=39
*tremolo	*	*
8dL 8Bn 8G 8D\	4ddd\	.
8d 8B 8G 8D\	.	.
8dJ 8B 8G 8D\	16ccc#X\LL	.
.	16ddd\JJ	.
=40	=40	=40
8dL 8c 8An 8D\	8.fff#X\L	.
8d 8c 8A 8D\	.	.
.	16eeen\L	.
8dJ 8c 8A 8D\	16ccc\	.
.	16aan\JJ	.
=41	=41	=41
*>C1	*>C1	*
8dL 8B 8G\	8gg\L	.
8d 8B 8G\	8dd\	.
8dJ 8B 8G\	8bb\J	.
*Xtremolo	*	*
=42	=42	=42
4d 4B 4G\	4gg\	.
!!LO:PB:g=original
=43:|!	=43:|!	=43:|!
*>C2	*>C2	*
!LO:TX:a:t=P:problem:mixed beam	!	!
8GG/L	4gg\	.
8d 8B 8G\	.	.
8dJ 8B 8G\	8r	.
=44	=44	=44
*tremolo	*	*
8dL 8B 8G\	4.r	.
8d 8B 8G\	.	.
8dJ 8B 8G\	.	.
=45!|:	=45!|:	=45!|:
*>D	*>D	*
8cL 8A 8F# 8D\	16dd\LL	.
.	16ee\	.
8c 8A 8F# 8D\	16dd\	.
.	16cc#X\	.
8cJ 8A 8F# 8D\	16dd\	.
.	16ee\JJ	.
=46	=46	=46
8cL 8A 8F# 8D\	16ff#\LL	.
.	16ee\	.
8c 8A 8F# 8D\	16ff#\	.
.	16gg\	.
8cJ 8A 8F# 8D\	16gg#X\	.
.	16aa\JJ	.
=47	=47	=47
8BL 8G 8D\	4bb\	.
8B 8G 8D\	.	.
8BJ 8G 8D\	8aa\	.
=48	=48	=48
8BL 8G 8D\	8gg\L	.
8B 8G 8D\	8eee\	.
8BJ 8G 8D\	8ddd\J	.
=49	=49	=49
8cL 8A 8F# 8D\	8aa\L	.
8c 8A 8F# 8D\	8eee\	.
8cJ 8A 8F# 8D\	8ddd\J	.
=50	=50	=50
8cL 8A 8F# 8D\	8aa\L	.
8c 8A 8F# 8D\	8eee\	.
8cJ 8A 8F# 8D\	8ddd\J	.
*Xtremolo	*	*
=51	=51	=51
8BL 8G 8D\	16bb\LL	.
.	16ccc\	.
8B 8G 8D\	16ddd\	.
.	16bb\	.
8cJ 8A 8D\	16ccc\	.
.	16aa\JJ	.
=52	=52	=52
4B 4G 4D\	16gg\LL	.
.	16bb\	.
.	16aa\	.
.	16gg\	.
8r	16ff#\	.
.	16ee\JJ	.
=53	=53	=53
*tremolo	*	*
8cL 8A 8F# 8D\	16dd\LL	.
.	16ee\	.
8c 8A 8F# 8D\	16dd\	.
.	16cc#X\	.
8cJ 8A 8F# 8D\	16dd\	.
.	16ee\JJ	.
=54	=54	=54
8cL 8A 8F# 8D\	16ff#\LL	.
.	16ee\	.
8c 8A 8F# 8D\	16ff#\	.
.	16gg\	.
8cJ 8A 8F# 8D\	16gg#X\	.
.	16aa\JJ	.
=55	=55	=55
8BL 8G 8D\	4bb\	.
8B 8G 8D\	.	.
!	!LO:TX:t=P:problem:defekt źródła	!
8BJ 8G 8D\	8ryy	.
!!LO:LB:g=original
=56	=56	=56
8BL 8G 8D\	8gg\L	.
8B 8G 8D\	8eee\	.
8BJ 8G 8D\	8ddd\J	.
=57	=57	=57
8cL 8A 8F# 8D\	8aa\L	.
8c 8A 8F# 8D\	8eee\	.
8cJ 8A 8F# 8D\	8ddd\J	.
=58	=58	=58
8cL 8A 8F# 8D\	8aa\L	.
8c 8A 8F# 8D\	8eee\	.
8cJ 8A 8F# 8D\	8ddd\J	.
*Xtremolo	*	*
=59	=59	=59
8BL 8G 8D\	16bb\LL	.
.	16ccc\	.
8r	16ddd\	.
.	16bb\	.
8cJ 8A 8F# 8D\	16ccc\	.
.	16aa\JJ	.
=60	=60	=60
4B 4G\	4gg\	.
=:|!|:	=:|!|:	=:|!|:
*>E	*>E	*
*k[]	*k[]	*
8r	8ggg 8gg\	.
=61	=61	=61
!LO:TX:a:t=P:problem:mixed beam	!	!
8C/L 8CC/	4.ggg [>4.gg\	.
8e 8c 8G\	.	.
8eJ 8c 8G\	.	.
=62	=62	=62
*tremolo	*	*
!	!LO:TX:i:a:t=et in	!
8eL 8c 8G\	8gg\L]	.
*	*8va	*
8e 8c 8G\	8ccc\	.
8eJ 8c 8G\	8ddd\J	.
*Xtremolo	*	*
=63	=63	=63
!LO:TX:a:t=P:problem:mixed beam	!	!
8C/L 8CC/	[4.eee\	.
8e 8c 8G\	.	.
8eJ 8c 8G\	.	.
=64	=64	=64
*tremolo	*	*
8eL 8c 8G\	8eee\L]	.
8e 8c 8G\	8gg\	.
8eJ 8c 8G\	8ccc\J	.
*Xtremolo	*X8va	*
=65	=65	=65
!LO:TX:a:t=P:problem:mixed beam	!LO:TX:i:a:t=loco	!
8GG/L	4.bb 4.b\	.
8f 8d 8G\	.	.
8fJ 8d 8G\	.	.
=66	=66	=66
*tremolo	*	*
.	8qccc/	.
8fL 8d 8G\	8bb\L	.
8f 8d 8G\	8aa\	.
8fJ 8d 8G\	8bb\J	.
*Xtremolo	*	*
!!LO:LB:g=original
=67	=67	=67
8C\L	4ccc\	.
8e 8c 8G\	.	.
8eJ 8c 8G\	8eee\	.
=68	=68	=68
*tremolo	*	*
8eL 8c 8G\	8gg\L	.
8e 8c 8G\	8ccc\	.
8eJ 8c 8G\	8eee\J	.
*Xtremolo	*	*
=69	=69	=69
8C\L	4.ggg [>4.gg\	.
8e 8c 8G\	.	.
8eJ 8c 8G\	.	.
=70	=70	=70
*tremolo	*	*
!	!LO:TX:i:a:t=et in	!
8eL 8c 8G\	8gg\L]	.
*	*8va	*
8e 8c 8G\	8ccc\	.
8eJ 8c 8G\	8ddd\J	.
*Xtremolo	*	*
=71	=71	=71
8C\L	4.eee\	.
8e 8c 8G\	.	.
8eJ 8c 8G\	.	.
=72	=72	=72
*tremolo	*	*
8eL 8c 8G\	8eee\L	.
8e 8c 8G\	8gg\	.
8eJ 8c 8G\	8ccc\J	.
*Xtremolo	*X8va	*
=73	=73	=73
!LO:TX:a:t=P:problem:mixed beam	!LO:TX:i:a:t=loco	!
8GG/L	4.bb 4.b\	.
8f 8d 8G\	.	.
8fJ 8d 8G\	.	.
=74	=74	=74
*tremolo	*	*
.	8qccc/	.
8fL 8d 8G\	8bb\L	.
8f 8d 8G\	8aa\	.
8fJ 8d 8G\	8bb\J	.
=75	=75	=75
8eL 8c\	8ccc\L	.
8e 8c\	8gg\	.
8eJ 8c\	8eee\J	.
*Xtremolo	*	*
=76	=76	=76
4e 4c\	4ccc\	.
=:|!|:	=:|!|:	=:|!|:
*>F	*>F	*
8r	8cc\	ff
=77	=77	=77
4c 4C\	4gg 4ee-X\	.
8c 8C\	8gg 8ee-\	.
=78	=78	=78
4c 4C\	4gg 4ee-X\	.
8c 8C\	8gg 8ee-\	.
=79	=79	=79
4B-X 4BB-X\	4gg 4dd\	.
8B- 8BB-\	8gg 8dd\	.
!!LO:LB:g=original
=80	=80	=80
4B-X 4BB-X\	4gg 4dd\	.
8B- 8BB-\	8gg 8dd\	.
=81	=81	=81
4A-X 4AA-X\	4ccc 4ee-X\	.
8A- 8AA-\	8ccc 8een\	.
=82	=82	=82
4A 4AA\	4ccc 4ff\	.
8A 8AA\	8ccc 8ff#X\	.
=83	=83	=83
*tremolo	*tremolo	*
8GL 8D 8GG/	8bbL 8ggn\	.
8G 8D 8GG/	8bb 8gg\	.
8GJ 8D 8GG/	8bbJ 8gg\	.
*Xtremolo	*Xtremolo	*
=84	=84	=84
4G 4D 4GG/	4bb 4gg\	.
8r	8ggg\	.
=85	=85	=85
8C\L	4.eee [>4.gg\	.
8e 8c 8G\	.	.
8eJ 8c 8G\	.	.
=86	=86	=86
!	!LO:TX:i:a:t=et in	!
8eL 8c 8G\	8gg\L]	.
*	*8va	*
8e 8c 8G\	8ccc\	.
8eJ 8c 8G\	8ddd\J	.
=87	=87	=87
8C\L	[4.eee\	.
8e 8c 8G\	.	.
8eJ 8c 8G\	.	.
=88	=88	=88
8eL 8c 8G\	8eee\L]	.
8e 8c 8G\	8gg\	.
8eJ 8c 8G\	8ccc\J	.
*	*X8va	*
=89	=89	=89
!LO:TX:a:t=P:problem:mixed beam	!LO:TX:i:a:t=loco.	!
8GG\L	4.bb 4.b\	.
8f 8d 8G\	.	.
8fJ 8d 8G\	.	.
=90	=90	=90
.	8qccc/	.
8fL 8d 8G\	8bb\L	.
8f 8d 8G\	8aa\	.
8fJ 8d 8G\	8bb\J	.
=91	=91	=91
8eL 8c\	8ccc\L	.
8e 8c\	8gg\	.
8eJ 8c\	8eee\J	.
=92	=92	=92
!LO:TX:i:a:t=Da Ca[po]:note=ostatnia sylaba ucięta przez defekt źródła	!	!
4e 4c\	4ccc\	.
==	==	==
*-	*-	*-
!!!system-decoration: {(p1)}
!!!ENC: Berenika Jozajtis
!!!END: 2022-08-24
!!!ENC: Kamil Watkowski
!!!END: 2022-09-30
!!!RDF**kern: > = above
!!!RDF**kern: < = below
!!!YEC: Copyright 2022 Narodowy Instytut Fryderyka Chopina (https://polishscores.org)
!!!YEM: License CC-BY-4.0 (https://creativecommons.org/licenses/by/4.0)
